X:5250
T:Pretty Maggie Morrisey
O:england
C:Trad
M:4/4
L:1/8
K:G
|:B3/2c/2|d3/2B/2 G3/2B/2 c3/2A/2 F3/2A/2| (3GFG A3/2F/2 G3/2A/2 B3/2c/2|d3/2g/2 f3/2g/2 e3/2f/2 g3/2e/2|
d3/2B/2 G3/2B/2 A2B3/2c/2|d3/2B/2 G3/2B/2 c3/2A/2 F3/2A/2|G3/2D/2 B,3/2D/2 G3/2A/2 B3/2c/2|d3/2g/2 f3/2g/2 e3/2c/2 A3/2F/2|
G2B2G2:|
|:B3/2c/2|d3/2g/2 f3/2g/2 e3/2g/2 f3/2g/2|d3/2g/2 f3/2g/2 e3/2g/2  (3gfg|d3/2g/2 f3/2g/2 e3/2f/2 g3/2e/2|
d3/2B/2 G3/2B/2 A2B3/2c/2|d3/2B/2 G3/2B/2 c3/2A/2 F3/2A/2|G3/2D/2 B,3/2D/2 G3/2A/2 B3/2c/2|d3/2g/2 f3/2g/2 e3/2c/2 A3/2F/2|
G2B2G2:|


